azure-docs/azure_dev-7.svg

<svg id="ICONS-64x" xmlns="http://www.w3.org/2000/svg" viewBox="0 0 64 64"><defs><style>.cls-2{fill:#414042}.cls-5{fill:#fff}</style></defs><path d="M64 11v46H0V11a4 4 0 0 1 4-4h56a4 4 0 0 1 4 4z" fill="#80bceb"/><circle class="cls-2" cx="6" cy="12" r="2"/><circle class="cls-2" cx="12" cy="12" r="2"/><circle class="cls-2" cx="18" cy="12" r="2"/><path d="M64 11v39l-4-4-2-25-24-1L21 7h39a4 4 0 0 1 4 4z" fill="#aad2f2"/><path fill="#231f20" d="M3 16h58v38H3z"/><path class="cls-5" d="M10.08 28.95v1.38h-.79V29A4.3 4.3 0 0 1 7 28.45V27a3.17 3.17 0 0 0 1.05.56 3.82 3.82 0 0 0 1.24.23V25a5.33 5.33 0 0 1-1.94-1.28 2.23 2.23 0 0 1-.44-1.38 2.26 2.26 0 0 1 .67-1.63 2.84 2.84 0 0 1 1.71-.83v-1.14h.78v1.12a4 4 0 0 1 1.84.36v1.36a3.23 3.23 0 0 0-1.83-.58v3A5.67 5.67 0 0 1 12 25.21a2.16 2.16 0 0 1-.13 2.94 3.13 3.13 0 0 1-1.79.8zm-.78-5.36v-2.53a1.34 1.34 0 0 0-.76.41 1.09 1.09 0 0 0-.28.76 1.22 1.22 0 0 0 .23.77 2.45 2.45 0 0 0 .8.59zm.78 1.76v2.44q1.08-.23 1.08-1.12t-1.08-1.32zM18.61 30.88h-5.4v-.75h5.4z"/><path class="cls-2" d="M61 16v31L30 16h31z"/></svg>

<svg id="ICONS-64x" xmlns="http://www.w3.org/2000/svg" viewBox="0 0 64 64"><defs><style>.cls-1{fill:#80bceb;}.cls-2{fill:#414042;}.cls-3{fill:#aad2f2;}.cls-4{fill:#231f20;}.cls-5{fill:#fff;}</style></defs><title>i_CLIgeneric</title><path class="cls-1" d="M64,11V57H0V11A4,4,0,0,1,4,7H60A4,4,0,0,1,64,11Z"/><circle class="cls-2" cx="6" cy="12" r="2"/><circle class="cls-2" cx="12" cy="12" r="2"/><circle class="cls-2" cx="18" cy="12" r="2"/><path class="cls-3" d="M64,11V50l-4-4L58,21,34,20,21,7H60A4,4,0,0,1,64,11Z"/><rect class="cls-4" x="3" y="16" width="58" height="38"/><path class="cls-5" d="M10.08,28.95v1.38H9.29V29A4.3,4.3,0,0,1,7,28.45V27a3.17,3.17,0,0,0,1.05.56,3.82,3.82,0,0,0,1.24.23V25a5.33,5.33,0,0,1-1.94-1.28,2.23,2.23,0,0,1-.44-1.38,2.26,2.26,0,0,1,.67-1.63,2.84,2.84,0,0,1,1.71-.83V18.74h.78v1.12a4,4,0,0,1,1.84.36v1.36A3.23,3.23,0,0,0,10.08,21V24A5.67,5.67,0,0,1,12,25.21a2.16,2.16,0,0,1-.13,2.94A3.13,3.13,0,0,1,10.08,28.95Zm-.78-5.36V21.06a1.34,1.34,0,0,0-.76.41,1.09,1.09,0,0,0-.28.76,1.22,1.22,0,0,0,.23.77A2.45,2.45,0,0,0,9.29,23.59Zm.78,1.76v2.44q1.08-.23,1.08-1.12T10.08,25.35Z"/><path class="cls-5" d="M18.61,30.88h-5.4v-.75h5.4Z"/><polygon class="cls-2" points="61 16 61 47 30 16 61 16"/></svg>
